X: 435
%
U:~=!turn!
T: Miss Vearie Hay
C:Donald Dow
O:Scotland
B:Keith Norman MacDonald : "The Skye collection of the best reels & strathspeys extant" : 1887
Z:Ralph Palmer
R:Reel
M:C
L:1/8
K:Bb
d | B2 (TFD) Cc-c.d | TB2 FD FDdc | B(GF)>D CEDC | B,FDE FBB :| (g | f)BdB fBe(g | f)Bdf gccb |
fBdB dfbg | fd(Tc>B) FBBg | fBdf Bfdf | egdf gcce | dBFD FBfd | gecf dBB |]


